X: 10
T:Munster Cloak
T:Spanish Sha
R:
M:3/4
L:1/8
K:G
|:G2G ABG|A2A BcA|G2G ABd|c2A2F2|
G2G ABG|A2A BcA|d2d efd|c2A2F2:|
|:g2g agf|d2g2a2|b2a2g2|f2g2a2|
b2a2g2|f2d efd|dcA dcA|A2G4:|
